images/brands/interactive-things.svg

<svg fill="none" height="180" viewBox="0 0 520 180" width="520" xmlns="http://www.w3.org/2000/svg" xmlns:xlink="http://www.w3.org/1999/xlink"><linearGradient id="a" gradientUnits="userSpaceOnUse" x1="54.0917" x2="78.8559" y1="97.4503" y2="122.05"><stop offset="0" stop-color="#00263e"/><stop offset=".1693" stop-color="#16415c"/><stop offset=".3468" stop-color="#275774"/><stop offset=".5359" stop-color="#336685"/><stop offset=".7426" stop-color="#3b6f8f"/><stop offset="1" stop-color="#3d7292"/></linearGradient><clipPath id="b"><path d="m22 65h476v59h-476z"/></clipPath><g clip-path="url(#b)"><path d="m51.0669 100.559 6.0985-6.1387 21.5428 21.6867c1.6632 1.674 1.6632 4.465 0 6.139-1.6633 1.674-4.4353 1.674-6.0985 0z" fill="url(#a)"/><path d="m29.5241 66.5946c-1.6632-1.6743-4.4352-1.6743-6.0985 0-1.6632 1.6743-1.6632 4.4649 0 6.1392l21.5428 21.6865-21.5428 21.6867c-1.6632 1.674-1.6632 4.465 0 6.139 1.6633 1.674 4.4353 1.674 6.0985 0l21.5428-21.687 6.0985-6.1387z" fill="#3e729a"/><path d="m78.7082 72.7338c1.7424-1.754 1.6632-4.6243-.1584-6.2987-1.7424-1.5946-4.5145-1.3553-6.1777.319l-9.029 9.0892c-1.6632 1.6743-1.6632 4.4648 0 6.1391 1.6633 1.6744 4.4353 1.6744 6.0985 0z" fill="#f55"/><path d="m105.082 113.237v-36.6762h6.257v36.6762zm18.454 0h-5.94v-25.1154h5.782v3.4284c1.663-2.95 4.672-4.0662 7.365-4.0662 6.099 0 9.108 4.4649 9.108 9.9662v15.946h-5.94v-14.9095c0-3.1094-1.346-5.5811-5.148-5.5811-3.405 0-5.227 2.6311-5.227 5.9798zm29.225-25.1154h5.228v5.3419h-5.228v11.6405c0 2.233.951 3.189 3.247 3.189.792 0 1.743-.159 2.06-.239v4.943c-.317.16-1.505.558-3.644.558-4.672 0-7.444-2.71-7.444-7.494v-12.6772h-4.673v-5.3419h1.267c2.614 0 3.881-1.6743 3.881-3.9865v-3.9067h5.385v7.8932h-.079zm31.047 17.9394c-1.346 4.385-5.306 7.893-11.326 7.893-6.811 0-12.751-4.943-12.751-13.554 0-7.8932 5.861-13.2351 12.197-13.2351 7.682 0 12.197 5.1027 12.197 13.0761 0 .956-.079 1.754-.158 1.913h-18.296c.158 3.827 3.168 6.538 6.811 6.538 3.644 0 5.465-1.914 6.257-4.385zm-5.702-8.2123c-.08-2.95-2.06-5.5811-6.178-5.5811-3.802 0-5.94 2.95-6.099 5.5811zm24.71-3.8271c-.633-.0797-1.346-.1594-1.9-.1594-4.673 0-6.732 2.6311-6.732 7.3348v11.96h-5.941v-25.0354h5.782v4.0663c1.188-2.7108 3.96-4.3852 7.207-4.3852.713 0 1.347.0797 1.584.1595zm13.544 19.8524c-7.366 0-12.039-5.82-12.039-13.474 0-7.2554 4.832-13.1554 11.96-13.1554 4.435 0 6.653 2.3122 7.365 4.0662v-3.3486h5.782v20.5698c0 2.073.238 4.067.238 4.625h-5.703c-.079-.558-.237-1.914-.237-3.668-1.109 2.552-3.802 4.385-7.366 4.385zm.713-5.182c3.96 0 6.653-3.428 6.653-8.292 0-4.8635-2.614-7.8932-6.653-7.8932-4.04 0-6.812 3.1094-6.812 7.8932 0 4.784 2.614 8.292 6.812 8.292zm22.334-8.053c0 5.103 3.248 7.893 6.97 7.893 3.96 0 5.703-2.79 6.257-4.704l5.227 1.914c-1.188 3.986-4.91 8.292-11.484 8.292-7.366 0-12.91-5.741-12.91-13.315 0-7.7338 5.624-13.3149 12.752-13.3149 6.732 0 10.454 4.2257 11.484 8.2919l-5.386 1.9135c-.554-2.2325-2.217-4.7041-6.019-4.7041-3.643-.0797-6.891 2.6311-6.891 7.7336zm30.81-12.5174h5.227v5.3419h-5.227v11.6405c0 2.233.95 3.189 3.247 3.189.792 0 1.742-.159 2.059-.239v4.943c-.317.16-1.505.558-3.643.558-4.673 0-7.445-2.71-7.445-7.494v-12.6772h-4.673v-5.3419h1.267c2.614 0 3.881-1.6743 3.881-3.9865v-3.9067h5.386v7.8932h-.079zm12.118-12.8364c2.138 0 3.96 1.754 3.96 3.9864 0 2.1527-1.743 3.9068-3.96 3.9068-2.06 0-3.881-1.6743-3.881-3.9068 0-2.2324 1.821-3.9864 3.881-3.9864zm-2.852 37.9518v-25.1154h5.94v25.1944zm24.632 0h-5.94l-10.217-25.1154h6.574l6.653 17.9394 6.494-17.9394h6.257zm33.819-7.176c-1.346 4.385-5.307 7.893-11.326 7.893-6.811 0-12.751-4.943-12.751-13.554 0-7.8932 5.861-13.2351 12.197-13.2351 7.682 0 12.197 5.1027 12.197 13.0761 0 .956-.079 1.754-.159 1.913h-18.295c.158 3.827 3.168 6.538 6.811 6.538s5.465-1.914 6.257-4.385zm-5.782-8.2123c-.079-2.95-2.059-5.5811-6.177-5.5811-3.802 0-5.941 2.95-6.099 5.5811zm37.938-15.4676v30.8559h-6.178v-30.8559h-11.801v-5.8203h29.938v5.8203zm20.592 30.8559h-5.94v-37.4735h5.94v14.6703c1.663-2.1527 4.515-3.1892 7.128-3.1892 6.178 0 9.188 4.4649 9.188 9.9662v15.9462h-5.941v-14.9097c0-3.1094-1.346-5.581-5.148-5.581-3.326 0-5.069 2.4716-5.227 5.6607zm24.552-37.9518c2.139 0 3.961 1.754 3.961 3.9864 0 2.1527-1.743 3.9068-3.961 3.9068-2.059 0-3.88-1.6743-3.88-3.9068 0-2.2324 1.821-3.9864 3.88-3.9864zm-2.851 37.9518v-25.1154h5.94v25.1944zm17.425 0h-5.941v-25.1154h5.782v3.4284c1.663-2.95 4.673-4.0662 7.366-4.0662 6.098 0 9.108 4.4649 9.108 9.9662v15.946h-5.94v-14.9095c0-3.1094-1.347-5.5811-5.148-5.5811-3.406 0-5.227 2.6311-5.227 5.9798zm25.106-.08c.396 3.109 2.852 5.421 6.257 5.421 4.752 0 7.049-2.391 7.049-7.494v-2.552c-1.029 1.914-3.643 3.668-7.207 3.668-6.653 0-11.564-5.182-11.564-12.199 0-6.6969 4.673-12.1983 11.564-12.1983 3.96 0 6.336 1.5946 7.366 3.6676v-3.3487h5.781v22.8024c0 6.698-3.485 12.917-12.83 12.917-6.653 0-11.247-4.146-11.96-9.249zm13.465-13.3151c0-4.3054-2.773-7.0959-6.416-7.0959-3.801 0-6.494 2.8703-6.494 7.0959 0 4.3851 2.613 7.0961 6.494 7.0961 3.881.08 6.416-2.711 6.416-7.0961zm14.414 5.1821c.238 2.233 1.901 4.306 5.069 4.306 2.455 0 3.802-1.356 3.802-2.95 0-1.356-.951-2.312-2.931-2.791l-3.722-.797c-4.435-.957-6.732-3.9068-6.732-7.3352 0-4.3851 4.039-8.1324 9.266-8.1324 6.97 0 9.267 4.5445 9.663 7.0162l-5.069 1.4351c-.238-1.4351-1.267-3.827-4.673-3.827-2.059 0-3.643 1.3554-3.643 2.95 0 1.3554.95 2.3121 2.455 2.631l3.802.7973c4.752 1.0365 7.207 3.987 7.207 7.654 0 3.827-3.089 8.053-9.504 8.053-7.207 0-10.059-4.784-10.376-7.575z" fill="#00263e"/></g></svg>

<svg width="520" height="180" viewBox="0 0 520 180" fill="none" xmlns="http://www.w3.org/2000/svg">
<g clip-path="url(#clip0_248_4909)">
<path d="M51.0669 100.559L57.1654 94.4203L78.7082 116.107C80.3714 117.781 80.3714 120.572 78.7082 122.246C77.0449 123.92 74.2729 123.92 72.6097 122.246L51.0669 100.559Z" fill="url(#paint0_linear_248_4909)"/>
<path d="M29.5241 66.5946C27.8609 64.9203 25.0889 64.9203 23.4256 66.5946C21.7624 68.2689 21.7624 71.0595 23.4256 72.7338L44.9684 94.4203L23.4256 116.107C21.7624 117.781 21.7624 120.572 23.4256 122.246C25.0889 123.92 27.8609 123.92 29.5241 122.246L51.0669 100.559L57.1654 94.4203L29.5241 66.5946Z" fill="#3E729A"/>
<path d="M78.7082 72.7338C80.4506 70.9798 80.3714 68.1095 78.5498 66.4351C76.8074 64.8405 74.0353 65.0798 72.3721 66.7541L63.3431 75.8433C61.6799 77.5176 61.6799 80.3081 63.3431 81.9824C65.0064 83.6568 67.7784 83.6568 69.4416 81.9824L78.7082 72.7338Z" fill="#FF5555"/>
<path d="M105.082 113.237V76.5608H111.339V113.237H105.082ZM123.536 113.237H117.596V88.1216H123.378V91.55C125.041 88.6 128.05 87.4838 130.743 87.4838C136.842 87.4838 139.851 91.9487 139.851 97.45V113.396H133.911V98.4865C133.911 95.3771 132.565 92.9054 128.763 92.9054C125.358 92.9054 123.536 95.5365 123.536 98.8852V113.237ZM152.761 88.1216H157.989V93.4635H152.761V105.104C152.761 107.337 153.712 108.293 156.008 108.293C156.8 108.293 157.751 108.134 158.068 108.054V112.997C157.751 113.157 156.563 113.555 154.424 113.555C149.752 113.555 146.98 110.845 146.98 106.061V93.3838H142.307V88.0419H143.574C146.188 88.0419 147.455 86.3676 147.455 84.0554V80.1487H152.84V88.0419H152.761V88.1216ZM183.808 106.061C182.462 110.446 178.502 113.954 172.482 113.954C165.671 113.954 159.731 109.011 159.731 100.4C159.731 92.5068 165.592 87.1649 171.928 87.1649C179.61 87.1649 184.125 92.2676 184.125 100.241C184.125 101.197 184.046 101.995 183.967 102.154H165.671C165.829 105.981 168.839 108.692 172.482 108.692C176.126 108.692 177.947 106.778 178.739 104.307L183.808 106.061ZM178.106 97.8487C178.026 94.8987 176.046 92.2676 171.928 92.2676C168.126 92.2676 165.988 95.2176 165.829 97.8487H178.106ZM202.816 94.0216C202.183 93.9419 201.47 93.8622 200.916 93.8622C196.243 93.8622 194.184 96.4933 194.184 101.197V113.157H188.243V88.1216H194.025V92.1879C195.213 89.4771 197.985 87.8027 201.232 87.8027C201.945 87.8027 202.579 87.8824 202.816 87.9622V94.0216ZM216.36 113.874C208.994 113.874 204.321 108.054 204.321 100.4C204.321 93.1446 209.153 87.2446 216.281 87.2446C220.716 87.2446 222.934 89.5568 223.646 91.3108V87.9622H229.428V108.532C229.428 110.605 229.666 112.599 229.666 113.157H223.963C223.884 112.599 223.726 111.243 223.726 109.489C222.617 112.041 219.924 113.874 216.36 113.874ZM217.073 108.692C221.033 108.692 223.726 105.264 223.726 100.4C223.726 95.5365 221.112 92.5068 217.073 92.5068C213.033 92.5068 210.261 95.6162 210.261 100.4C210.261 105.184 212.875 108.692 217.073 108.692ZM239.407 100.639C239.407 105.742 242.655 108.532 246.377 108.532C250.337 108.532 252.08 105.742 252.634 103.828L257.861 105.742C256.673 109.728 252.951 114.034 246.377 114.034C239.011 114.034 233.467 108.293 233.467 100.719C233.467 92.9852 239.091 87.4041 246.219 87.4041C252.951 87.4041 256.673 91.6298 257.703 95.696L252.317 97.6095C251.763 95.377 250.1 92.9054 246.298 92.9054C242.655 92.8257 239.407 95.5365 239.407 100.639ZM270.217 88.1216H275.444V93.4635H270.217V105.104C270.217 107.337 271.167 108.293 273.464 108.293C274.256 108.293 275.206 108.134 275.523 108.054V112.997C275.206 113.157 274.018 113.555 271.88 113.555C267.207 113.555 264.435 110.845 264.435 106.061V93.3838H259.762V88.0419H261.029C263.643 88.0419 264.91 86.3676 264.91 84.0554V80.1487H270.296V88.0419H270.217V88.1216ZM282.335 75.2852C284.473 75.2852 286.295 77.0392 286.295 79.2716C286.295 81.4243 284.552 83.1784 282.335 83.1784C280.275 83.1784 278.454 81.5041 278.454 79.2716C278.454 77.0392 280.275 75.2852 282.335 75.2852ZM279.483 113.237V88.1216H285.423V113.316L279.483 113.237ZM304.115 113.237H298.175L287.958 88.1216H294.532L301.185 106.061L307.679 88.1216H313.936L304.115 113.237ZM337.934 106.061C336.588 110.446 332.627 113.954 326.608 113.954C319.797 113.954 313.857 109.011 313.857 100.4C313.857 92.5068 319.718 87.1649 326.054 87.1649C333.736 87.1649 338.251 92.2676 338.251 100.241C338.251 101.197 338.172 101.995 338.092 102.154H319.797C319.955 105.981 322.965 108.692 326.608 108.692C330.251 108.692 332.073 106.778 332.865 104.307L337.934 106.061ZM332.152 97.8487C332.073 94.8987 330.093 92.2676 325.975 92.2676C322.173 92.2676 320.034 95.2176 319.876 97.8487H332.152ZM370.09 82.3811V113.237H363.912V82.3811H352.111V76.5608H382.049V82.3811H370.09ZM390.682 113.237H384.742V75.7635H390.682V90.4338C392.345 88.2811 395.197 87.2446 397.81 87.2446C403.988 87.2446 406.998 91.7095 406.998 97.2108V113.157H401.057V98.2473C401.057 95.1379 399.711 92.6663 395.909 92.6663C392.583 92.6663 390.84 95.1379 390.682 98.327V113.237ZM415.234 75.2852C417.373 75.2852 419.195 77.0392 419.195 79.2716C419.195 81.4243 417.452 83.1784 415.234 83.1784C413.175 83.1784 411.354 81.5041 411.354 79.2716C411.354 77.0392 413.175 75.2852 415.234 75.2852ZM412.383 113.237V88.1216H418.323V113.316L412.383 113.237ZM429.808 113.237H423.867V88.1216H429.649V91.55C431.312 88.6 434.322 87.4838 437.015 87.4838C443.113 87.4838 446.123 91.9487 446.123 97.45V113.396H440.183V98.4865C440.183 95.3771 438.836 92.9054 435.035 92.9054C431.629 92.9054 429.808 95.5365 429.808 98.8852V113.237ZM454.914 113.157C455.31 116.266 457.766 118.578 461.171 118.578C465.923 118.578 468.22 116.187 468.22 111.084V108.532C467.191 110.446 464.577 112.2 461.013 112.2C454.36 112.2 449.449 107.018 449.449 100.001C449.449 93.3041 454.122 87.8027 461.013 87.8027C464.973 87.8027 467.349 89.3973 468.379 91.4703V88.1216H474.16V110.924C474.16 117.622 470.675 123.841 461.33 123.841C454.677 123.841 450.083 119.695 449.37 114.592L454.914 113.157ZM468.379 99.8419C468.379 95.5365 465.606 92.746 461.963 92.746C458.162 92.746 455.469 95.6163 455.469 99.8419C455.469 104.227 458.082 106.938 461.963 106.938C465.844 107.018 468.379 104.227 468.379 99.8419ZM482.793 105.024C483.031 107.257 484.694 109.33 487.862 109.33C490.317 109.33 491.664 107.974 491.664 106.38C491.664 105.024 490.713 104.068 488.733 103.589L485.011 102.792C480.576 101.835 478.279 98.8852 478.279 95.4568C478.279 91.0717 482.318 87.3244 487.545 87.3244C494.515 87.3244 496.812 91.8689 497.208 94.3406L492.139 95.7757C491.901 94.3406 490.872 91.9487 487.466 91.9487C485.407 91.9487 483.823 93.3041 483.823 94.8987C483.823 96.2541 484.773 97.2108 486.278 97.5297L490.08 98.327C494.832 99.3635 497.287 102.314 497.287 105.981C497.287 109.808 494.198 114.034 487.783 114.034C480.576 114.034 477.724 109.25 477.407 106.459L482.793 105.024Z" fill="#00263E"/>
</g>
<defs>
<linearGradient id="paint0_linear_248_4909" x1="54.0917" y1="97.4503" x2="78.8559" y2="122.05" gradientUnits="userSpaceOnUse">
<stop stop-color="#00263E"/>
<stop offset="0.1693" stop-color="#16415C"/>
<stop offset="0.3468" stop-color="#275774"/>
<stop offset="0.5359" stop-color="#336685"/>
<stop offset="0.7426" stop-color="#3B6F8F"/>
<stop offset="1" stop-color="#3D7292"/>
</linearGradient>
<clipPath id="clip0_248_4909">
<rect width="476" height="59" fill="white" transform="translate(22 65)"/>
</clipPath>
</defs>
</svg>
